X: 17
%
U:~=!turn!
T: Athole's Honest Men
C:Stewart Robertson
O:Scotland
B:Keith Norman MacDonald : "The Skye collection of the best reels & strathspeys extant" : 1887
Z:Ralph Palmer
R:Strathspey
M:C
L:1/8
K:G
D | {EF}G2 (D>G) D<G,{/C}B,>G, | A,<A, {/B,}C<A, E<A, {/B,}C<A, | {EF}G2 (D>E) D<C{/C}B,>D | (3EFG (3FGA B<GG :|
B | G<G(B>d) {/f}g>dB>G | (3cde (3dcB c>AA>B | G<G(B<d) {/f}g>dB>G | c>e{/^c}d>B G/G/G G>B |
G<GB>d {/f}g>dB>G | (3cde (3dcB c>AA>B | {EF}G>D{/C}B,>G, (3B,CD (3EFG | (3ABc (3BdA B<GG |]


